background/projectSvg/verilog.svg

<?xml version="1.0" standalone="no"?><!DOCTYPE svg PUBLIC "-//W3C//DTD SVG 1.1//EN" "http://www.w3.org/Graphics/SVG/1.1/DTD/svg11.dtd"><svg t="1675012047511" class="icon" viewBox="0 0 1024 1024" version="1.1" xmlns="http://www.w3.org/2000/svg" p-id="5188" xmlns:xlink="http://www.w3.org/1999/xlink" width="200" height="200"><path d="M737.365333 737.365333H286.592V286.592h450.773333m180.309334 180.309333V376.746667h-90.154667V286.592c0-50.048-40.533333-90.154667-90.154667-90.154667h-90.154666V106.282667h-90.154667v90.154666h-90.154667V106.282667H376.746667v90.154666H286.592c-50.048 0-90.154667 40.106667-90.154667 90.154667V376.746667H106.282667v90.154666h90.154666v90.154667H106.282667v90.154667h90.154666v90.154666a90.154667 90.154667 0 0 0 90.154667 90.154667H376.746667v90.154667h90.154666v-90.154667h90.154667v90.154667h90.154667v-90.154667h90.154666a90.154667 90.154667 0 0 0 90.154667-90.154667v-90.154666h90.154667v-90.154667h-90.154667v-90.154667m-270.464 90.154667h-90.154667v-90.154667h90.154667m90.154667-90.154666H376.746667v270.464h270.464z" fill="#FF7043" p-id="5189"></path></svg>

<svg class="icon" viewBox="0 0 1024 1024" xmlns="http://www.w3.org/2000/svg" width="200" height="200"><path d="M737.365 737.365H286.592V286.592h450.773m180.31 180.31v-90.155H827.52v-90.155c0-50.048-40.533-90.155-90.155-90.155h-90.154v-90.154h-90.155v90.154h-90.155v-90.154h-90.154v90.154h-90.155c-50.048 0-90.155 40.107-90.155 90.155v90.155h-90.154V466.9h90.154v90.155h-90.154v90.155h90.154v90.154a90.155 90.155 0 0 0 90.155 90.155h90.155v90.155H466.9V827.52h90.155v90.155h90.155V827.52h90.154a90.155 90.155 0 0 0 90.155-90.155v-90.154h90.155v-90.155H827.52v-90.155m-270.464 90.155h-90.155v-90.155h90.155m90.155-90.154H376.747V647.21H647.21z" fill="#FF7043"/></svg>
